src/48x48/places/folder-gruvbox-material-orange-torrent.svg

<svg xmlns="http://www.w3.org/2000/svg" width="48" height="48" version="1">
 <rect style="opacity:0.2" width="40" height="26" x="4" y="17" rx="2" ry="2"/>
 <path style="fill:#c35e0a" d="M 4,34 C 4,35.108 4.892,36 6,36 H 42 C 43.108,36 44,35.108 44,34 V 12 C 44,10.892 43.108,10 42,10 H 24 C 21,10 20,6 17,6 H 6 C 4.892,6 4,6.892 4,8"/>
 <rect style="opacity:0.2" width="40" height="26" x="4" y="15" rx="2" ry="2"/>
 <rect style="fill:#F5E4C1" width="36" height="16" x="6" y="13" rx="2" ry="2"/>
 <rect style="fill:#e78a4e" width="40" height="26" x="4" y="16" rx="2" ry="2"/>
 <path style="opacity:0.1;fill:#F5E4C1" d="M 6,6 C 4.892,6 4,6.892 4,8 V 9 C 4,7.892 4.892,7 6,7 H 17 C 20,7 21,11 24,11 H 42 C 43.108,11 44,11.892 44,13 V 12 C 44,10.892 43.108,10 42,10 H 24 C 21,10 20,6 17,6 Z"/>
 <path style="fill:#564135" d="M 26 19 C 20.477153 19 16 23.477153 16 29 C 16 34.522847 20.477153 39 26 39 L 44 39 L 44 37 L 26 37 C 21.581722 37 18 33.418278 18 29 C 18 24.581722 21.581722 21 26 21 L 26 19 z M 26 22 C 22.134007 22 19 25.134007 19 29 C 19 32.865993 22.134007 36 26 36 L 44 36 L 44 34 L 26 34 C 23.238576 34 21 31.761424 21 29 C 21 26.238576 23.238576 24 26 24 C 26.688467 24.000788 27.369353 24.143747 28 24.419922 L 28 22.298828 C 27.351311 22.102941 26.677616 22.002281 26 22 z M 26 25 C 23.790861 25 22 26.790861 22 29 C 22 31.209139 23.790861 33 26 33 L 44 33 L 44 31 L 26 31 C 24.895431 31 24 30.104569 24 29 C 24 27.895431 24.895431 27 26 27 C 26.713268 27.0013 27.371883 27.38229 27.728516 28 L 29.867188 28 C 29.411731 26.236014 27.821835 25.00264 26 25 z"/>
</svg>

<?xml version="1.0" encoding="UTF-8"?>
<svg width="48" height="48" version="1" xmlns="http://www.w3.org/2000/svg">
 <rect x="4" y="17" width="40" height="26" rx="2" ry="2" opacity=".2"/>
 <path d="m4 34c0 1.108 0.892 2 2 2h36c1.108 0 2-0.892 2-2v-22c0-1.108-0.892-2-2-2h-18c-3 0-4-4-7-4h-11c-1.108 0-2 0.892-2 2" fill="#c35e0a"/>
 <rect x="4" y="15" width="40" height="26" rx="2" ry="2" opacity=".2"/>
 <rect x="6" y="13" width="36" height="16" rx="2" ry="2" fill="#F5E4C1"/>
 <rect x="4" y="16" width="40" height="26" rx="2" ry="2" fill="#e78a4e"/>
 <path d="m6 6c-1.108 0-2 0.892-2 2v1c0-1.108 0.892-2 2-2h11c3 0 4 4 7 4h18c1.108 0 2 0.892 2 2v-1c0-1.108-0.892-2-2-2h-18c-3 0-4-4-7-4z" fill="#F5E4C1" opacity=".1"/>
 <path d="m26 19c-5.5228 0-10 4.4772-10 10s4.4772 10 10 10h18v-2h-18c-4.4183 0-8-3.5817-8-8s3.5817-8 8-8v-2zm0 3c-3.866 0-7 3.134-7 7s3.134 7 7 7h18v-2h-18c-2.7614 0-5-2.2386-5-5s2.2386-5 5-5c0.68847 7.88e-4 1.3694 0.14375 2 0.41992v-2.1211c-0.64869-0.19589-1.3224-0.29655-2-0.29883zm0 3c-2.2091 0-4 1.7909-4 4s1.7909 4 4 4h18v-2h-18c-1.1046 0-2-0.89543-2-2s0.89543-2 2-2c0.71327 0.0013 1.3719 0.38229 1.7285 1h2.1387c-0.45546-1.764-2.0454-2.9974-3.8672-3z" fill="#564135"/>
</svg>
